X: 15043
T: George White's Favourite
R: reel
M: 4/4
K: Gmajor
|:Bd|eB ~B2 eBdB|AGAB GEDE|GB (3BBB GABd|eBdB A2 Bd|
eB ~B2 eBdB|AGAB GE D2|GB B2 GABd|AGAB G2:|
|:de|gede gaba|g2ga gedB|dega bgag|eaa^g a2 =ga|
bgeg d2 de|gede gaba|g3 d egdB|AGAB G2:|

